src/components/Icon/icons/receipt.svg

<svg width="14" height="16" viewBox="0 0 14 16" fill="none" xmlns="http://www.w3.org/2000/svg">
<path d="M3.84999 4.85H10.15M3.84999 8.45H10.15M2.31999 1.25H11.68C12.3262 1.25 12.85 1.85442 12.85 2.6V14.75L10.9 13.4L8.94999 14.75L6.99999 13.4L5.04999 14.75L3.09999 13.4L1.14999 14.75V2.6C1.14999 1.85442 1.67382 1.25 2.31999 1.25Z" stroke="#9499A5" stroke-width="1.2" stroke-linecap="round" stroke-linejoin="round"/>
</svg>

<svg xmlns="http://www.w3.org/2000/svg" width="14" height="16" fill="none" viewBox="0 0 14 16"><path stroke="#9499a5" stroke-linecap="round" stroke-linejoin="round" stroke-width="1.2" d="M3.85 4.85h6.3m-6.3 3.6h6.3m-7.83-7.2h9.36c.646 0 1.17.604 1.17 1.35v12.15L10.9 13.4l-1.95 1.35L7 13.4l-1.95 1.35L3.1 13.4l-1.95 1.35V2.6c0-.746.524-1.35 1.17-1.35"/></svg>
